X:1
T: Speed The Plough
N:
C:
S:
A:
O:
R:
M:4/4
K:A
I:speed 210
%W: A1
% voice 1 (1 lines, 59 notes)
K:A
M:4/4
L:1/16
A2 B2 c2 d2 e2 f2 e2 ^d2 |e2 f2 e2 ^d2 e2 f2 e2 c2 |d4 d2 d2 c4 c2 c2 |B2 c2 d2 c2 B2 G2 E2 G2 |A2 B2 c2 d2 e2 f2 e2 ^d2 |e2 f2 e2 ^d2 e2 f2 e2 c2 |d2 e2 c2 e2 B2 e2 A2 e2 |E2 G2 B2 G2 A8 |
%W: A2
% voice 1 (1 lines, 59 notes)
A2 B2 c2 d2 e2 f2 e2 ^d2 |e2 f2 e2 ^d2 e2 f2 e2 c2 |d4 d2 d2 c4 c2 c2 |B2 c2 d2 c2 B2 G2 E2 G2 |A2 B2 c2 d2 e2 f2 e2 ^d2 |e2 f2 e2 ^d2 e2 f2 e2 c2 |d2 e2 c2 e2 B2 e2 A2 e2 |E2 G2 B2 G2 A8 |
%W: B1
% voice 1 (1 lines, 52 notes)
a4 b4/3 a4/3 g4/3 |a4 c2 e2 a4 g2 f2 |e2 c2 A2 c2 d4 f2 d2 |c4 e2 c2 B2 c2 d2 c2 |B2 G2 E4 A2 c2 e2 g2 |a2 e2 c4 f2 e2 d2 f2 |e2 c2 A4 d2 e2 c2 e2 |B2 e2 A2 e2 E4 G4 |A8
%W: B2
% voice 1 (1 lines, 52 notes)
a4 b4/3 |a4/3 g4/3 a4 c2 e2 |a4 g2 f2 e2 c2 A2 c2 |d4 f2 d2 c4 e2 c2 |B2 c2 d2 c2 B2 G2 E4 |A2 c2 e2 g2 a2 e2 c4 |f2 e2 d2 f2 e2 c2 A4 |d2 e2 c2 e2 B2 e2 A2 e2 |E4 G4 A8 ||
